X:3212
T:Collier's Reel, The
R:reel
H:Also as a jig, see jig#188
D:Josie McDermott
D:Declan Masterson
Z:id:hn-reel-346
M:C|
K:Dmix
FD (3EFG ~A3B|cAdB cAGc|Add^c d2 (3efg|fdec dcAG|
FD (3EFG ~A3B|cAdB cAGc|Addc ABAG|1 EFGE FDDE:|2 EFGE FDDg||
|:fd (3efg fdec|Addc Adde|fd (3efg fdec|AGAB c2cd|
eaag efge|dfed cAGc|Addc ABAG|1 EFGE FDDg:|2 EFGE FDDE||
"Variations:"
|:(3FED FG ~A3B|c2cB cAGc|Add^c d2 (3efg|fdec dcAG|
(3FED (3EFG ~A3B|cedB cAGc|Addc (3ABc AG|1 EFGE FDDE:|2 EFGE FDDg||
|:fded fdec|Addc Addg|fd (3efg fdec|AGAB cBcd|
eaag aege|dfed cAdc|(3ABc AG (3EFG AB|1 cAGE EDDg:|2 cAGE EDDE||
|:~F3D (3EFG AB|c2dc cAGc|Ad~d2 Adeg|fdec dcAG|
~F3D (3EFG AB|cAdB cAGc|Addc ABAG|1 EFGE FDDE:|2 EFGE FDDg||
|:~f3g fed^c|Ad~d2 Adde|~f3d fdec|~A3B cBcd|
eaag efge|dfed c2Bc|Addc ABAG|1 EFGE FDDg:|2 EFGE FDDE||


